X:223
T: EIN JUNGER KNAB GASSATEN GING
N: E0813
O: Europa, Mitteleuropa, Deutschland, Meiningen; Coburg
R: Tage - Lied, Kilt - Lied
M: 3/4
L: 1/8
K: G
D2 | GFG3B | AGA3
B | cBc2e2 | B2B2
D2 | GFG3B | AGA3
B | cBc2e2 | B2B2z
G | Bcd3B | cde3
e | ded3B | AGA3
B | cBc2e2 | B2B3
G | Bcd3B | cde3
e | ded3B | AGA3
B | cBc2e2 | B2B2

